launcher/android/assets/skins/day/svg/mapMysteryStartP0.svg

<svg enable-background="new 0 0 37.87 56.00" height="56" viewBox="0 0 37.87 56" width="37.8665" xmlns="http://www.w3.org/2000/svg" xmlns:xlink="http://www.w3.org/1999/xlink"><linearGradient id="a" gradientTransform="matrix(-.966395140898 .257061143792 -.257061143792 -.966395140898 2.065206981723 .61489147033)" gradientUnits="objectBoundingBox" x1=".992412" x2="1.98393" y1=".442435" y2=".442435"><stop offset=".00925926" stop-color="#fff"/><stop offset="1" stop-color="#fcfcff" stop-opacity="0"/></linearGradient><linearGradient id="b"><stop offset=".00925926" stop-color="#fff"/><stop offset="1" stop-color="#fff" stop-opacity="0"/></linearGradient><linearGradient id="c" gradientTransform="matrix(-.968600338348 .248622976719 -.248622976719 -.968600338348 2.063142275808 .620156916669)" gradientUnits="objectBoundingBox" x1=".99241" x2="1.98442" xlink:href="#b" y1=".44036" y2=".44036"/><linearGradient id="d" gradientTransform="matrix(-.94043610514 .339970487173 -.339970487173 -.94043610514 2.119019914519 .542387069721)" gradientUnits="objectBoundingBox" x1="1.012" x2="2.01996" xlink:href="#b" y1=".456823" y2=".456823"/><g stroke-linejoin="round"><path d="m17.5845 43.9604c3.1452 0 5.6949 2.5832 5.6949 5.7697 0 3.1866-2.5497 5.7698-5.6949 5.7698-3.1451 0-5.6948-2.5832-5.6948-5.7698 0-3.1865 2.5496-5.7697 5.6948-5.7697z" fill="#d66919" stroke="#000"/><path d="m9.64172 25.2274-5.09539-2.2479-2.69754-3.297-1.198949-2.9973-.149841-3.8965 1.19891-3.14698 1.79834-2.84741 1.94825-1.94824 3.29699-2.24805 2.54771-1.04907 3.297-.599365 3.4469-.149902 3.5967-.299805 3.4469.449707 2.2479 1.049075 2.9973 1.49853 2.6976 1.94824 1.9482 2.09815 2.0981 3.59672.2997 3.2971-.4496 4.196-1.3487 2.2481-2.248 2.3977-2.6975 2.9973-3.5968 2.5478-3.5967 2.9972-1.9482 3.4469-1.0491 2.3977.0815 1.0591-.1751.9455-.8618.4495-3.2408-.0561-1.1989-.8992v-2.6975l1.9482-3.1472 2.5477-3.7466 3.4469-3.8965 1.3488-2.0981 1.1989-3.4468v-3.1472l-.7493-3.5967-1.7984-1.7983-2.9973-1.3489-2.6976-.29982-2.2479.14992-2.6976.8992-1.7983 1.6485v1.9483l.5994 1.9482 2.248 1.4987 1.4986.8991.4496 1.4986-.2997 1.6486-.8992 1.1988-1.049 1.049-1.9483.4498z" fill="#d66919" stroke="#000"/><g stroke-width=".2"><path d="m23.2294 2.44812 3.3969 2.29785 2.7974 2.19812 2.4977 3.09731 1.0991 2.7973.3996 3.6967-.5994 3.5968-.9991 1.6984 1.3879.4635 2.8083-3.7605.4995-2.8975-.0999-3.8964-2.1588-3.53279-1.338-1.5625-.4996-.69946-1.3987-.89917-1.9982-1.49854-1.9982-.89917-1.7984-.39966z" fill="url(#a)"/><path d="m10.2911 16.2606-.88665-.6119-.71188 1.7109 1.19891 1.299 1.19892 1.3987.2997 1.5985-.0999 1.7983-.1623.6119 1.3238-.2248 1.099-.6244.8492-.7992-.025-1.0491.0999-1.0241-.2997-.8492-1.3987-.8991-1.0241-.6494-.8992-.6495" fill="url(#c)"/><path d="m18.0341 44.8097 1.099 1.2988.6993 1.3987-.0999 1.9983-.3996 1.9982-.6994 1.6983.1999.8993 1.007-.0299 1.149-.6743.9241-1.2489.4996-1.4738s.2424-1.1125.1169-1.5686c-.1093-.3972-.2997-1.5986-.2997-1.5986l-.3997-1.1987-.9991-.8993-.8991-.5995z" fill="url(#d)"/></g></g></svg>

﻿<?xml version="1.0" encoding="utf-8"?>
<!DOCTYPE svg PUBLIC "-//W3C//DTD SVG 1.1//EN" "http://www.w3.org/Graphics/SVG/1.1/DTD/svg11.dtd">
<svg xmlns="http://www.w3.org/2000/svg" xmlns:xlink="http://www.w3.org/1999/xlink" version="1.1" baseProfile="full" width="37.8665" height="56" viewBox="0 0 37.87 56.00" enable-background="new 0 0 37.87 56.00" xml:space="preserve">
	<g>
		<path fill="#D66919" fill-opacity="1" stroke-linejoin="round" stroke="#000000" stroke-opacity="1" d="M 17.5845,43.9604C 20.7297,43.9604 23.2794,46.5436 23.2794,49.7301C 23.2794,52.9167 20.7297,55.4999 17.5845,55.4999C 14.4394,55.4999 11.8897,52.9167 11.8897,49.7301C 11.8897,46.5436 14.4393,43.9604 17.5845,43.9604 Z "/>
		<path fill="#D66919" fill-opacity="1" stroke-linejoin="round" stroke="#000000" stroke-opacity="1" d="M 9.64172,25.2274L 4.54633,22.9795L 1.84879,19.6825L 0.649841,16.6852L 0.5,12.7887L 1.69891,9.64172L 3.49725,6.79431L 5.4455,4.84607L 8.74249,2.59802L 11.2902,1.54895L 14.5872,0.949585L 18.0341,0.799683L 21.6308,0.499878L 25.0777,0.949585L 27.3256,1.99866L 30.3229,3.49719L 33.0205,5.44543L 34.9687,7.54358L 37.0668,11.1403L 37.3665,14.4374L 36.9169,18.6334L 35.5682,20.8815L 33.3202,23.2792L 30.6227,26.2765L 27.0259,28.8243L 23.4292,31.8215L 21.481,35.2684L 20.4319,37.6661L 20.5134,38.7252L 20.3383,39.6707L 19.4765,40.1202L 16.2357,40.0641L 15.0368,39.1649L 15.0368,36.4674L 16.985,33.3202L 19.5327,29.5736L 22.9796,25.6771L 24.3284,23.579L 25.5273,20.1322L 25.5273,16.985L 24.778,13.3883L 22.9796,11.59L 19.9823,10.2411L 17.2847,9.94128L 15.0368,10.0912L 12.3392,10.9904L 10.5409,12.6389L 10.5409,14.5872L 11.1403,16.5354L 13.3883,18.0341L 14.8869,18.9332L 15.3365,20.4318L 15.0368,22.0804L 14.1376,23.2792L 13.0886,24.3282L 11.1403,24.778L 9.64172,25.2274 Z "/>
		<linearGradient id="SVGID_Fill1_" gradientUnits="objectBoundingBox" x1="0.992412" y1="0.442435" x2="1.98393" y2="0.442435" gradientTransform="rotate(165.104248 0.992412 0.442435)">
			<stop offset="0.00925926" stop-color="#FFFFFF" stop-opacity="1"/>
			<stop offset="1" stop-color="#FCFCFF" stop-opacity="0"/>
		</linearGradient>
		<path fill="url(#SVGID_Fill1_)" stroke-width="0.2" stroke-linejoin="round" d="M 23.2294,2.44812L 26.6263,4.74597L 29.4237,6.94409L 31.9214,10.0414L 33.0205,12.8387L 33.4201,16.5354L 32.8207,20.1322L 31.8216,21.8306L 33.2095,22.2941L 36.0178,18.5336L 36.5173,15.6361L 36.4174,11.7397L 34.2586,8.20691L 32.9206,6.64441L 32.421,5.94495L 31.0223,5.04578L 29.0241,3.54724L 27.0259,2.64807L 25.2275,2.24841L 23.2294,2.44812 Z "/>
		<linearGradient id="SVGID_Fill2_" gradientUnits="objectBoundingBox" x1="0.99241" y1="0.44036" x2="1.98442" y2="0.44036" gradientTransform="rotate(165.603958 0.992410 0.440360)">
			<stop offset="0.00925926" stop-color="#FFFFFF" stop-opacity="1"/>
			<stop offset="1" stop-color="#FFFFFF" stop-opacity="0"/>
		</linearGradient>
		<path fill="url(#SVGID_Fill2_)" stroke-width="0.2" stroke-linejoin="round" d="M 10.2911,16.2606L 9.40445,15.6487L 8.69257,17.3596L 9.89148,18.6586L 11.0904,20.0573L 11.3901,21.6558L 11.2902,23.4541L 11.1279,24.066L 12.4517,23.8412L 13.5507,23.2168L 14.3999,22.4176L 14.3749,21.3685L 14.4748,20.3444L 14.1751,19.4952L 12.7764,18.5961L 11.7523,17.9467L 10.8531,17.2972"/>
		<linearGradient id="SVGID_Fill3_" gradientUnits="objectBoundingBox" x1="1.012" y1="0.456823" x2="2.01996" y2="0.456823" gradientTransform="rotate(160.124924 1.011996 0.456823)">
			<stop offset="0.00925926" stop-color="#FFFFFF" stop-opacity="1"/>
			<stop offset="1" stop-color="#FFFFFF" stop-opacity="0"/>
		</linearGradient>
		<path fill="url(#SVGID_Fill3_)" stroke-width="0.2" stroke-linejoin="round" d="M 18.0341,44.8097L 19.1331,46.1085L 19.8324,47.5072L 19.7325,49.5055L 19.3329,51.5037L 18.6335,53.202L 18.8334,54.1013L 19.8404,54.0714L 20.9894,53.3971L 21.9135,52.1482L 22.4131,50.6744C 22.4131,50.6744 22.6555,49.5619 22.53,49.1058C 22.4207,48.7086 22.2303,47.5072 22.2303,47.5072L 21.8306,46.3085L 20.8315,45.4092L 19.9324,44.8097L 18.0341,44.8097 Z "/>
	</g>
</svg>
